images/icon-deelenwerksamen.svg

<svg height="40" viewBox="0 0 76 40" width="76" xmlns="http://www.w3.org/2000/svg"><path d="m19.6.5c-1.2.9-7 5.2-7.9 6.1s2.1 3.5 5.1 2c2.7-1.3 4.5-3.4 5.7-3.5.2523582-.06713491.5212011.00967733.7.2l12.7 14.9c.5536558-.3187671 1.1658151-.5228202 1.8-.6v-14.9s-6.8-1.4-9.2-3.2c-1.2-1-3.5-1.5-5.7-1.5-1.08645-.00431584-2.1666516.16446566-3.2.5zm-17.9.9c-.20324396.00122264-.39621891.08948944-.53005842.24244888s-.19570904.35594348-.16994158.55755112v22.1c-.00559515.1873108.0663564.368628.19886422.5011358s.31382498.2044593.50113578.1988642h4.5c.1873108.0055951.36862796-.0663564.50113578-.1988642s.20445937-.313825.19886422-.5011358v-22.1c.0176877-.41079127-.29049613-.76300136-.7-.8zm38 0c-.203244.00122264-.3962189.08948944-.5300584.24244888s-.1957091.35594348-.1699416.55755112v22.1c-.0055951.1873108.0663564.368628.1988642.5011358s.313825.2044593.5011358.1988642h4.5c.1873108.0055951.368628-.0663564.5011358-.1988642s.2044593-.313825.1988642-.5011358v-22.1c.0176877-.41079127-.2904961-.76300136-.7-.8zm-28.9 3.1c-1.06969901.87733546.1.2-2.5.2 0 0 .1114714 15.773189.26754558 15.8999992 1.60000002 1.3 10.83245442 6.5000008 12.13245442 6.4000008.7.1 2.4-.6 2-2.1 1.9 1.5 3.2 1 3.4.9.6561085-.3879429.9810108-1.1595858.8-1.9.6.4 2.3 1.6 3.4.7.5012981-.5371358.656146-1.3113753.4-2-.2-.4 4.1 1.9 4-1.7v-.3l-11.7-13.8c-.3-.4-1 0-1.5.4-.8.5-1.6 1.2-2.4 1.8-1.9843754 1.6098046-4.736146 1.8849817-7 .7-1.2-.5-2.5-2.6-1.6-3.4 1.3204002-1.42675442 2.7962415-2.70134463 4.4-3.8-.1885747-.09700688-.3909361-.16446068-.6-.2-1.2543848.5835172-2.430301 1.32266454-3.5 2.2z" fill="#fff" fill-rule="evenodd" transform="translate(16 6)"/></svg>

<?xml version="1.0" encoding="UTF-8" standalone="no"?>
<svg width="76px" height="40px" viewBox="0 0 76 40" version="1.1" xmlns="http://www.w3.org/2000/svg" xmlns:xlink="http://www.w3.org/1999/xlink">
    <!-- Generator: Sketch 3.6.1 (26313) - http://www.bohemiancoding.com/sketch -->
    <title>icon-deelenwerksamen</title>
    <desc>Created with Sketch.</desc>
    <defs></defs>
    <g id="Page-1" stroke="none" stroke-width="1" fill="none" fill-rule="evenodd">
        <g id="icon-deelenwerksamen">
            <g transform="translate(16.000000, 6.000000)" id="Shape" fill="#FFFFFF">
                <path d="M19.6,0.5 C18.4,1.4 12.6,5.7 11.7,6.6 C10.8,7.5 13.8,10.1 16.8,8.6 C19.5,7.3 21.3,5.2 22.5,5.1 C22.7523582,5.03286509 23.0212011,5.10967733 23.2,5.3 L35.9,20.2 C36.4536558,19.8812329 37.0658151,19.6771798 37.7,19.6 L37.7,4.7 C37.7,4.7 30.9,3.3 28.5,1.5 C27.3,0.5 25,-4.97379915e-14 22.8,-4.97379915e-14 C21.71355,-0.00431584372 20.6333484,0.164465657 19.6,0.5 Z M1.7,1.4 C1.49675604,1.40122264 1.30378109,1.48948944 1.16994158,1.64244888 C1.03610207,1.79540832 0.974232537,1.99839236 1,2.2 L1,24.3 C0.994404854,24.4873108 1.0663564,24.668628 1.19886422,24.8011358 C1.33137204,24.9336436 1.5126892,25.0055951 1.7,25 L6.2,25 C6.3873108,25.0055951 6.56862796,24.9336436 6.70113578,24.8011358 C6.8336436,24.668628 6.90559515,24.4873108 6.9,24.3 L6.9,2.2 C6.9176877,1.78920873 6.60950387,1.43699864 6.2,1.4 L1.7,1.4 L1.7,1.4 Z M39.7,1.4 C39.496756,1.40122264 39.3037811,1.48948944 39.1699416,1.64244888 C39.0361021,1.79540832 38.9742325,1.99839236 39,2.2 L39,24.3 C38.9944049,24.4873108 39.0663564,24.668628 39.1988642,24.8011358 C39.331372,24.9336436 39.5126892,25.0055951 39.7,25 L44.2,25 C44.3873108,25.0055951 44.568628,24.9336436 44.7011358,24.8011358 C44.8336436,24.668628 44.9055951,24.4873108 44.9,24.3 L44.9,2.2 C44.9176877,1.78920873 44.6095039,1.43699864 44.2,1.4 L39.7,1.4 L39.7,1.4 Z M10.8,4.5 C9.73030099,5.37733546 10.9,4.7 8.3,4.7 C8.3,4.7 8.4114714,20.473189 8.56754558,20.5999992 C10.1675456,21.8999992 19.4,27.1 20.7,27 C21.4,27.1 23.1,26.4 22.7,24.9 C24.6,26.4 25.9,25.9 26.1,25.8 C26.7561085,25.4120571 27.0810108,24.6404142 26.9,23.9 C27.5,24.3 29.2,25.5 30.3,24.6 C30.8012981,24.0628642 30.956146,23.2886247 30.7,22.6 C30.5,22.2 34.8,24.5 34.7,20.9 L34.7,20.6 L23,6.8 C22.7,6.4 22,6.8 21.5,7.2 C20.7,7.7 19.9,8.4 19.1,9 C17.1156246,10.6098046 14.363854,10.8849817 12.1,9.7 C10.9,9.2 9.6,7.1 10.5,6.3 C11.8204002,4.87324558 13.2962415,3.59865537 14.9,2.5 C14.7114253,2.40299312 14.5090639,2.33553932 14.3,2.3 C13.0456152,2.8835172 11.869699,3.62266454 10.8,4.5 Z"></path>
            </g>
            <g id="Group"></g>
        </g>
    </g>
</svg>
